;FLAVOR:Marlin
;TIME:7309
;Filament used: 9.03828m
;Layer height: 0.1
;MINX:59.7
;MINY:94.952
;MINZ:0.2
;MAXX:175.3
;MAXY:140.044
;MAXZ:29.87
;Generated with Cura_SteamEngine 5.4.0
M140 S70
M105
M190 S70
M104 S230
M105
M109 S230
M82 ;absolute extrusion mode
G28 ;Home
G1 Z15.0 F6000 ;Move the platform down 15mm
;Prime the extruder
G92 E0
G1 F200 E3
G92 E0
G92 E0
G92 E0
G1 F1500 E-5
;LAYER_COUNT:151
;LAYER:0
M107
G0 F3600 X74.59 Y95.589 Z0.2
;TYPE:SKIRT
G1 F1500 E0
G1 F1800 X75.566 Y95.168 E0.03535
G1 X76.669 Y94.952 E0.07274
G1 X158.301 Y94.952 E2.78783
G1 X159.471 Y95.177 E2.82745
G1 X160.573 Y95.738 E2.86858
G1 X161.287 Y96.356 E2.89999
G1 X161.956 Y97.246 E2.93702
G1 X162.374 Y98.114 E2.96907
G1 X162.533 Y99.099 E3.00225
G1 X162.54 Y99.863 E3.02766
G1 X162.988 Y99.87 E3.04257
G1 X164.185 Y100.085 E3.08302
G1 X173.469 Y105.163 E3.43497
G1 X174.329 Y105.842 E3.47142
G1 X174.996 Y106.874 E3.51229
G1 X175.148 Y107.288 E3.52696
G1 X175.3 Y108.252 E3.55942
G1 X175.276 Y126.866 E4.17852
G1 X175.127 Y127.727 E4.20758
G1 X174.701 Y128.658 E4.24164
G1 X174.46 Y129.007 E4.25574
G1 X173.674 Y129.738 E4.29144
G1 X164.325 Y134.814 E4.64527
G1 X163.387 Y135.139 E4.67829
G1 X162.541 Y135.124 E4.70643
G1 X162.54 Y135.914 E4.7327
G1 X162.301 Y137.061 E4.77167
G1 X161.69 Y138.151 E4.81323
G1 X161.191 Y138.743 E4.83898
G1 X160.347 Y139.373 E4.87401
G1 X159.579 Y139.758 E4.90259
G1 X158.452 Y140.044 E4.94126
G1 X76.586 Y140.04 E7.66413
G1 X75.439 Y139.801 E7.7031
G1 X74.349 Y139.19 E7.74466
G1 X73.757 Y138.691 E7.77042
G1 X73.127 Y137.847 E7.80545
G1 X72.742 Y137.079 E7.83402
G1 X72.456 Y135.952 E7.87269
G1 X72.456 Y135.137 E7.8998
G1 X72.012 Y135.13 E7.91457
G1 X70.815 Y134.915 E7.95502
G1 X61.531 Y129.837 E8.30698
G1 X60.671 Y129.158 E8.34342
G1 X60.004 Y128.126 E8.38429
G1 X59.852 Y127.712 E8.39896
G1 X59.7 Y126.748 E8.43142
G1 X59.724 Y108.134 E9.05052
G1 X59.873 Y107.273 E9.07958
G1 X60.299 Y106.342 E9.11364
G1 X60.54 Y105.993 E9.12774
G1 X61.326 Y105.262 E9.16345
G1 X70.674 Y100.187 E9.51723
G1 X71.612 Y99.862 E9.55024
G1 X72.46 Y99.877 E9.57845
G1 X72.46 Y99.045 E9.60612
G1 X72.81 Y97.599 E9.65561
G1 X73.675 Y96.384 E9.70521
G1 X74.59 Y95.589 E9.74553
G0 F3600 X74.805 Y95.932
G1 F1800 X75.683 Y95.553 E9.77734
G1 X76.71 Y95.352 E9.81214
G1 X158.262 Y95.352 E12.52457
G1 X159.341 Y95.559 E12.56111
G1 X160.345 Y96.071 E12.5986
G1 X160.995 Y96.633 E12.62718
G1 X161.613 Y97.456 E12.66141
G1 X161.988 Y98.233 E12.69011
G1 X162.133 Y99.103 E12.71944
G1 X162.144 Y100.314 E12.75972
G1 X162.405 Y100.261 E12.76858
G1 X162.982 Y100.27 E12.78777
G1 X164.049 Y100.466 E12.82385
G1 X173.221 Y105.477 E13.17148
G1 X174.029 Y106.115 E13.20572
G1 X174.637 Y107.055 E13.24295
G1 X174.753 Y107.352 E13.25356
G1 X174.9 Y108.252 E13.28389
G1 X174.882 Y126.798 E13.90073
G1 X174.742 Y127.607 E13.92804
G1 X174.337 Y128.492 E13.96041
G1 X174.188 Y128.714 E13.9693
G1 X173.438 Y129.411 E14.00336
G1 X164.194 Y134.436 E14.3533
G1 X163.323 Y134.738 E14.38396
G1 X162.348 Y134.721 E14.4164
G1 X162.141 Y134.684 E14.42339
G1 X162.14 Y135.871 E14.46287
G1 X161.922 Y136.919 E14.49847
G1 X161.359 Y137.922 E14.53673
G1 X160.913 Y138.451 E14.55974
G1 X160.168 Y139.015 E14.59082
G1 X159.439 Y139.38 E14.61794
G1 X158.4 Y139.644 E14.65359
G1 X76.629 Y139.64 E17.37331
G1 X75.581 Y139.422 E17.40891
G1 X74.578 Y138.859 E17.44717
G1 X74.049 Y138.413 E17.47018
G1 X73.485 Y137.668 E17.50126
G1 X73.12 Y136.939 E17.52838
G1 X72.856 Y135.9 E17.56403
G1 X72.856 Y134.687 E17.60438
G1 X72.595 Y134.739 E17.61323
G1 X72.018 Y134.73 E17.63242
G1 X70.951 Y134.534 E17.6685
G1 X61.779 Y129.523 E18.01612
G1 X60.971 Y128.885 E18.05037
G1 X60.363 Y127.945 E18.0876
G1 X60.247 Y127.648 E18.0982
G1 X60.1 Y126.748 E18.12854
G1 X60.118 Y108.202 E18.74538
G1 X60.258 Y107.393 E18.77269
G1 X60.663 Y106.508 E18.80506
G1 X60.812 Y106.286 E18.81395
G1 X61.562 Y105.589 E18.848
G1 X70.805 Y100.565 E19.19791
G1 X71.676 Y100.263 E19.22857
G1 X72.651 Y100.28 E19.261
G1 X72.86 Y100.317 E19.26806
G1 X72.86 Y99.094 E19.30874
G1 X73.181 Y97.768 E19.35411
G1 X73.974 Y96.654 E19.39959
G1 X74.805 Y95.932 E19.43621
G0 F3600 X75.02 Y96.275
G1 F1800 X75.8 Y95.938 E19.46447
G1 X76.751 Y95.752 E19.4967
G1 X158.224 Y95.752 E22.2065
G1 X159.211 Y95.941 E22.23993
G1 X160.117 Y96.404 E22.27377
G1 X160.7 Y96.908 E22.2994
G1 X161.272 Y97.668 E22.33104
G1 X161.602 Y98.353 E22.35632
G1 X161.738 Y99.169 E22.38384
G1 X161.746 Y100.825 E22.43892
G1 X162.403 Y100.661 E22.46144
G1 X162.91 Y100.663 E22.4783
G1 X163.912 Y100.847 E22.51219
G1 X172.973 Y105.791 E22.8555
G1 X173.729 Y106.388 E22.88754
G1 X174.301 Y107.272 E22.92256
G1 X174.359 Y107.419 E22.92782
G1 X174.5 Y108.252 E22.95592
G1 X174.488 Y126.73 E23.5705
G1 X174.357 Y127.487 E23.59605
G1 X173.973 Y128.326 E23.62674
G1 X173.881 Y128.453 E23.63196
G1 X173.202 Y129.084 E23.66278
G1 X164.063 Y134.058 E24.00885
G1 X163.259 Y134.337 E24.03716
G1 X162.355 Y134.321 E24.06723
G1 X161.741 Y134.188 E24.08813
G1 X161.74 Y135.827 E24.14264
G1 X161.542 Y136.778 E24.17495
G1 X161.029 Y137.693 E24.20984
G1 X160.636 Y138.158 E24.23009
G1 X159.955 Y138.674 E24.25851
G1 X159.298 Y139.003 E24.28294
G1 X158.349 Y139.244 E24.31551
G1 X76.673 Y139.24 E27.03206
G1 X75.722 Y139.042 E27.06437
G1 X74.807 Y138.529 E27.09926
G1 X74.342 Y138.136 E27.11951
G1 X73.826 Y137.455 E27.14793
G1 X73.497 Y136.798 E27.17237
G1 X73.256 Y135.849 E27.20494
G1 X73.256 Y134.175 E27.26061
G1 X72.597 Y134.339 E27.2832
G1 X72.09 Y134.337 E27.30006
G1 X71.088 Y134.153 E27.33395
G1 X62.027 Y129.209 E27.67726
G1 X61.271 Y128.612 E27.7093
G1 X60.699 Y127.728 E27.74432
G1 X60.641 Y127.581 E27.74958
G1 X60.5 Y126.748 E27.77767
G1 X60.512 Y108.27 E28.39226
G1 X60.643 Y107.513 E28.41781
G1 X61.027 Y106.674 E28.4485
G1 X61.119 Y106.547 E28.45371
G1 X61.798 Y105.916 E28.48454
G1 X70.936 Y100.943 E28.83057
G1 X71.74 Y100.664 E28.85887
G1 X72.644 Y100.68 E28.88894
G1 X73.26 Y100.814 E28.90991
G1 X73.26 Y99.143 E28.96549
G1 X73.552 Y97.937 E29.00676
G1 X74.273 Y96.924 E29.04811
G1 X75.02 Y96.275 E29.08103
G0 F3600 X75.236 Y96.617
G1 F1800 X75.915 Y96.324 E29.10562
G1 X76.792 Y96.152 E29.13535
G1 X158.186 Y96.152 E31.84252
G1 X159.081 Y96.323 E31.87283
G1 X159.892 Y96.738 E31.90313
G1 X160.406 Y97.183 E31.92574
G1 X160.929 Y97.877 E31.95465
G1 X161.216 Y98.473 E31.97665
G1 X161.343 Y99.235 E32.00234
G1 X161.347 Y101.472 E32.07674
G1 X161.822 Y101.218 E32.09466
G1 X162.5 Y101.049 E32.1179
G1 X162.896 Y101.063 E32.13108
G1 X163.776 Y101.229 E32.16087
G1 X172.781 Y106.142 E32.50205
G1 X173.429 Y106.66 E32.52964
G1 X173.965 Y107.489 E32.56248
G1 X174.1 Y108.252 E32.58825
G1 X174.094 Y126.662 E33.20057
G1 X173.972 Y127.367 E33.22436
G1 X173.609 Y128.16 E33.25337
G1 X172.966 Y128.757 E33.28255
G1 X163.932 Y133.68 E33.62474
G1 X163.195 Y133.936 E33.65069
G1 X162.401 Y133.922 E33.67711
G1 X161.832 Y133.8 E33.69646
G1 X161.341 Y133.496 E33.71567
G1 X161.34 Y135.783 E33.79173
G1 X161.162 Y136.637 E33.82075
G1 X160.68 Y137.497 E33.85354
G1 X160.361 Y137.864 E33.86971
G1 X159.713 Y138.355 E33.89675
G1 X159.162 Y138.624 E33.91715
G1 X158.297 Y138.844 E33.94683
G1 X76.717 Y138.84 E36.66019
G1 X75.863 Y138.662 E36.68921
G1 X75.003 Y138.18 E36.722
G1 X74.636 Y137.861 E36.73817
G1 X74.145 Y137.213 E36.76521
G1 X73.876 Y136.662 E36.78561
G1 X73.656 Y135.797 E36.81529
G1 X73.656 Y133.526 E36.89083
G1 X73.178 Y133.782 E36.90886
G1 X72.5 Y133.951 E36.9321
G1 X72.104 Y133.937 E36.94528
G1 X71.224 Y133.771 E36.97507
G1 X62.219 Y128.858 E37.31625
G1 X61.571 Y128.34 E37.34384
G1 X61.035 Y127.511 E37.37668
G1 X60.9 Y126.748 E37.40245
G1 X60.906 Y108.338 E38.01477
G1 X61.028 Y107.633 E38.03856
G1 X61.391 Y106.84 E38.06757
G1 X62.034 Y106.243 E38.09675
G1 X71.067 Y101.321 E38.4389
G1 X71.804 Y101.065 E38.46485
G1 X72.598 Y101.079 E38.49126
G1 X73.167 Y101.201 E38.51062
G1 X73.66 Y101.506 E38.5299
G1 X73.66 Y99.192 E38.60686
G1 X73.923 Y98.106 E38.64403
G1 X74.572 Y97.194 E38.68126
G1 X75.236 Y96.617 E38.71051
G0 F3600 X75.452 Y96.959
G1 F1800 X76.034 Y96.708 E38.7316
G1 X76.828 Y96.552 E38.75851
G1 X158.148 Y96.552 E41.46322
G1 X158.951 Y96.705 E41.49041
G1 X159.667 Y97.072 E41.51717
G1 X160.112 Y97.457 E41.53674
G1 X160.586 Y98.087 E41.56296
G1 X160.83 Y98.593 E41.58165
G1 X160.948 Y99.301 E41.60552
G1 X160.947 Y102.437 E41.70983
G1 X161.177 Y102.12 E41.72285
G1 X161.472 Y101.861 E41.73591
G1 X161.919 Y101.606 E41.75303
G1 X162.542 Y101.451 E41.77438
G1 X162.822 Y101.456 E41.78369
G1 X163.639 Y101.61 E41.81134
G1 X172.589 Y106.493 E42.15044
G1 X173.128 Y106.931 E42.17354
G1 X173.586 Y107.639 E42.20159
G1 X173.7 Y108.252 E42.22233
G1 X173.7 Y126.594 E42.83239
G1 X173.587 Y127.247 E42.85443
G1 X173.278 Y127.922 E42.87912
G1 X172.732 Y128.429 E42.9039
G1 X163.801 Y133.302 E43.24229
G1 X163.131 Y133.535 E43.26588
G1 X162.446 Y133.523 E43.28867
G1 X161.984 Y133.424 E43.30438
G1 X161.335 Y133.022 E43.32977
G1 X161.15 Y132.858 E43.338
G1 X160.941 Y132.552 E43.35032
G1 X160.94 Y135.74 E43.45635
G1 X160.783 Y136.495 E43.482
G1 X160.331 Y137.301 E43.51274
G1 X160.119 Y137.545 E43.52349
G1 X159.502 Y138.013 E43.54925
G1 X159.024 Y138.246 E43.56693
G1 X158.245 Y138.444 E43.59367
G1 X76.76 Y138.44 E46.30387
G1 X76.005 Y138.283 E46.32952
G1 X75.199 Y137.831 E46.36025
G1 X74.955 Y137.619 E46.371
G1 X74.487 Y137.002 E46.39676
G1 X74.254 Y136.524 E46.41445
G1 X74.056 Y135.745 E46.44118
G1 X74.056 Y132.558 E46.54718
G1 X73.823 Y132.88 E46.5604
G1 X73.528 Y133.139 E46.57346
G1 X73.081 Y133.394 E46.59057
G1 X72.458 Y133.549 E46.61193
G1 X72.178 Y133.544 E46.62124
G1 X71.361 Y133.39 E46.64889
G1 X62.411 Y128.507 E46.98799
G1 X61.872 Y128.069 E47.01109
G1 X61.414 Y127.361 E47.03914
G1 X61.3 Y126.748 E47.05988
G1 X61.3 Y108.406 E47.66993
G1 X61.413 Y107.753 E47.69198
G1 X61.722 Y107.078 E47.71667
G1 X62.268 Y106.571 E47.74145
G1 X71.198 Y101.699 E48.07979
G1 X71.868 Y101.466 E48.10338
G1 X72.553 Y101.478 E48.12617
G1 X73.015 Y101.577 E48.14188
G1 X73.664 Y101.979 E48.16728
G1 X73.849 Y102.143 E48.1755
G1 X74.06 Y102.451 E48.18792
G1 X74.06 Y99.241 E48.29468
G1 X74.294 Y98.275 E48.32774
G1 X74.871 Y97.464 E48.36084
G1 X75.452 Y96.959 E48.38645
G0 F3600 X75.668 Y97.301
G1 F1800 X76.153 Y97.092 E48.40401
G1 X76.864 Y96.952 E48.42811
G1 X158.11 Y96.952 E51.13037
G1 X158.819 Y97.087 E51.15437
G1 X159.484 Y97.428 E51.17923
G1 X159.792 Y97.697 E51.19283
G1 X160.243 Y98.297 E51.2178
G1 X160.445 Y98.715 E51.23324
G1 X160.548 Y99.301 E51.25303
G1 X160.54 Y135.696 E52.46353
G1 X160.403 Y136.354 E52.48588
G1 X159.982 Y137.105 E52.51452
G1 X159.877 Y137.226 E52.51985
G1 X159.26 Y137.694 E52.5456
G1 X158.925 Y137.858 E52.55801
G1 X158.193 Y138.044 E52.58313
G1 X76.804 Y138.04 E55.29014
G1 X76.146 Y137.903 E55.31249
G1 X75.395 Y137.482 E55.34113
G1 X75.274 Y137.377 E55.34646
G1 X74.806 Y136.76 E55.37221
G1 X74.642 Y136.425 E55.38462
G1 X74.456 Y135.693 E55.40974
G1 X74.46 Y99.29 E56.62051
G1 X74.665 Y98.444 E56.64946
G1 X75.17 Y97.734 E56.67844
G1 X75.668 Y97.301 E56.70039
G0 F3600 X75.886 Y97.642
G1 F1800 X76.23 Y97.484 E56.71298
G1 X76.9 Y97.352 E56.73569
G1 X158.072 Y97.352 E59.43548
G1 X158.687 Y97.469 E59.45631
G1 X159.301 Y97.784 E59.47926
G1 X159.517 Y97.988 E59.48914
G1 X159.922 Y98.535 E59.51178
G1 X160.061 Y98.839 E59.52289
G1 X160.148 Y99.301 E59.53853
G1 X160.14 Y135.652 E60.74757
G1 X160.023 Y136.213 E60.76663
G1 X159.633 Y136.909 E60.79317
G1 X159.073 Y137.34 E60.81667
G1 X158.827 Y137.47 E60.82592
G1 X158.142 Y137.644 E60.84943
G1 X76.848 Y137.64 E63.55328
G1 X76.287 Y137.523 E63.57234
G1 X75.591 Y137.133 E63.59888
G1 X75.16 Y136.573 E63.62238
G1 X75.03 Y136.327 E63.63163
G1 X74.856 Y135.642 E63.65514
G1 X74.86 Y99.339 E64.86258
G1 X75.036 Y98.613 E64.88743
G1 X75.468 Y98.006 E64.91221
G1 X75.886 Y97.642 E64.93064
G0 F3600 X76.141 Y97.95
G1 F1800 X76.307 Y97.876 E64.93669
G1 X76.936 Y97.752 E64.95801
G1 X158.072 Y97.752 E67.65661
G1 X158.557 Y97.852 E67.67308
G1 X159.067 Y98.113 E67.69213
G1 X159.196 Y98.226 E67.69784
G1 X159.601 Y98.773 E67.72047
G1 X159.669 Y98.92 E67.72586
G1 X159.748 Y99.301 E67.7388
G1 X159.74 Y135.609 E68.94641
G1 X159.644 Y136.071 E68.96211
G1 X159.324 Y136.642 E68.98388
G1 X158.829 Y137.023 E69.00465
G1 X158.683 Y137.094 E69.01005
G1 X158.091 Y137.244 E69.03036
G1 X76.891 Y137.24 E71.73109
G1 X76.429 Y137.144 E71.74678
G1 X75.858 Y136.824 E71.76855
G1 X75.477 Y136.329 E71.78933
G1 X75.406 Y136.183 E71.79473
G1 X75.256 Y135.591 E71.81504
G1 X75.26 Y99.388 E73.01916
G1 X75.407 Y98.782 E73.0399
G1 X75.794 Y98.238 E73.0621
G1 X76.141 Y97.95 E73.0771
G0 F3600 X76.436 Y98.715
G1 F1800 X76.55 Y98.643 E73.08158
G1 X76.972 Y98.552 E73.09594
G1 X158.072 Y98.552 E75.79334
G1 X158.367 Y98.629 E75.80348
G1 X158.605 Y98.772 E75.81272
G1 X158.912 Y99.187 E75.82988
G1 X158.948 Y99.301 E75.83386
G1 X158.94 Y135.609 E77.04147
G1 X158.868 Y135.877 E77.0507
G1 X158.684 Y136.152 E77.0617
G1 X158.358 Y136.376 E77.07486
G1 X158.04 Y136.444 E77.08568
G1 X76.891 Y136.44 E79.7847
G1 X76.623 Y136.368 E79.79393
G1 X76.348 Y136.184 E79.80494
G1 X76.124 Y135.858 E79.81809
G1 X76.056 Y135.54 E79.82891
G1 X76.06 Y99.388 E81.03133
G1 X76.159 Y99.072 E81.04234
G1 X76.436 Y98.715 E81.05737
G0 F3600 X76.12 Y98.47
G1 F1800 X76.384 Y98.268 E81.06843
G1 X76.972 Y98.152 E81.08836
G1 X158.072 Y98.152 E83.78576
G1 X158.468 Y98.242 E83.79927
G1 X158.875 Y98.464 E83.81469
G1 X159.28 Y99.011 E83.83732
G1 X159.348 Y99.301 E83.84723
G1 X159.34 Y135.609 E85.05484
G1 X159.254 Y135.981 E85.06754
G1 X159.016 Y136.374 E85.08282
G1 X158.585 Y136.706 E85.10092
G1 X158.04 Y136.844 E85.11961
G1 X76.891 Y136.84 E87.81864
G1 X76.519 Y136.754 E87.83134
G1 X76.126 Y136.516 E87.84662
G1 X75.794 Y136.085 E87.86472
G1 X75.656 Y135.54 E87.88341
G1 X75.66 Y99.388 E89.08584
G1 X75.777 Y98.952 E89.10085
G1 X76.12 Y98.47 E89.12053
G1 F1500 E84.12053
G0 F3600 X76.068 Y98.431
G0 X72.864 Y101.954
G1 F1500 E89.12053
G1 F1800 X73.454 Y102.319 E89.1436
G1 X73.572 Y102.432 E89.14904
G1 X73.841 Y102.851 E89.1656
G1 X74.054 Y103.504 E89.18844
G1 X74.052 Y131.416 E90.1168
G1 X73.893 Y132.084 E90.13964
G1 X73.559 Y132.579 E90.1595
G1 X73.264 Y132.838 E90.17255
G1 X72.932 Y133.019 E90.18513
G1 X72.413 Y133.148 E90.20292
G1 X72.252 Y133.151 E90.20827
G1 X71.498 Y133.009 E90.23379
G1 X62.636 Y128.174 E90.56956
G1 X62.173 Y127.798 E90.5894
G1 X61.792 Y127.209 E90.61273
G1 X61.7 Y126.748 E90.62836
G1 X61.7 Y108.406 E91.23842
G1 X61.797 Y107.876 E91.25634
G1 X62.054 Y107.316 E91.27684
G1 X62.503 Y106.899 E91.29722
G1 X71.39 Y102.05 E91.63394
G1 X71.932 Y101.867 E91.65296
G1 X72.546 Y101.878 E91.67339
G1 X72.864 Y101.954 E91.68426
G1 F1500 E86.68426
G0 F3600 X62.695 Y107.25
G1 F1500 E91.68426
G1 F1800 X71.582 Y102.401 E92.02098
G1 X71.992 Y102.268 E92.03532
G1 X72.539 Y102.278 E92.05351
G1 X72.707 Y102.327 E92.05933
G1 X73.243 Y102.659 E92.0803
G1 X73.461 Y102.975 E92.09307
G1 X73.654 Y103.567 E92.11378
G1 X73.652 Y131.369 E93.03848
G1 X73.521 Y131.919 E93.05729
G1 X73.227 Y132.355 E93.07478
G1 X73.014 Y132.525 E93.08384
G1 X72.747 Y132.664 E93.09385
G1 X72.326 Y132.758 E93.1082
G1 X71.635 Y132.628 E93.13159
G1 X62.828 Y127.823 E93.46527
G1 X62.474 Y127.527 E93.48062
G1 X62.169 Y127.055 E93.49931
G1 X62.1 Y126.748 E93.50977
G1 X62.1 Y108.406 E94.11983
G1 X62.189 Y107.953 E94.13519
G1 X62.384 Y107.556 E94.1499
G1 X62.695 Y107.25 E94.16441
G0 F3600 X62.887 Y107.601
G1 F1800 X71.774 Y102.752 E94.50113
G1 X72.108 Y102.651 E94.51273
G1 X72.513 Y102.677 E94.52623
G1 X72.929 Y102.907 E94.54204
G1 X73.081 Y103.099 E94.55019
G1 X73.254 Y103.63 E94.56876
G1 X73.252 Y131.369 E95.49136
G1 X73.182 Y131.707 E95.50284
G1 X72.966 Y132.052 E95.51638
G1 X72.829 Y132.17 E95.5224
G1 X72.562 Y132.309 E95.53241
G1 X72.321 Y132.35 E95.54054
G1 X71.772 Y132.247 E95.55912
G1 X63.02 Y127.472 E95.89072
G1 X62.736 Y127.225 E95.90323
G1 X62.555 Y126.95 E95.91418
G1 X62.5 Y126.748 E95.92115
G1 X62.5 Y108.406 E96.53121
G1 X62.58 Y108.038 E96.54373
G1 X62.737 Y107.745 E96.55479
G1 X62.887 Y107.601 E96.5617
G0 F3600 X63.348 Y108.261
G1 F1800 X72.158 Y103.454 E96.8955
G1 X72.281 Y103.432 E96.89966
G1 X72.393 Y103.487 E96.90381
